src/images/Icons/Light/Chevron.svg

<svg width="40" height="40" viewBox="0 0 40 40" fill="none" xmlns="http://www.w3.org/2000/svg">
<g clip-path="url(#clip0_50_1248)">
<path opacity="0.6" d="M20 40C8.97 40 0 31.028 0 20C0 8.972 8.97 0 20 0C31.028 0 40 8.972 40 20C40 31.028 31.028 40 20 40Z" fill="#2B3652"/>
<path d="M22.885 28.4418C22.503 28.4418 22.119 28.2958 21.827 28.0038L14.853 21.0638C14.571 20.7818 14.413 20.3998 14.413 19.9998C14.413 19.6018 14.571 19.2198 14.853 18.9378L21.827 11.9938C22.413 11.4098 23.361 11.4098 23.947 11.9978C24.531 12.5858 24.529 13.5358 23.943 14.1198L18.037 19.9998L23.943 25.8798C24.529 26.4638 24.531 27.4118 23.947 27.9998C23.655 28.2958 23.269 28.4418 22.885 28.4418Z" fill="white"/>
</g>
<defs>
<clipPath id="clip0_50_1248">
<rect width="40" height="40" fill="white"/>
</clipPath>
</defs>
</svg>

<svg fill="none" height="40" viewBox="0 0 40 40" width="40" xmlns="http://www.w3.org/2000/svg" xmlns:xlink="http://www.w3.org/1999/xlink"><clipPath id="a"><path d="m0 0h40v40h-40z"/></clipPath><g clip-path="url(#a)"><path d="m20 40c-11.03 0-20-8.972-20-20s8.97-20 20-20c11.028 0 20 8.972 20 20s-8.972 20-20 20z" fill="#2b3652" opacity=".6"/><path d="m22.885 28.4418c-.382 0-.766-.146-1.058-.438l-6.974-6.94c-.282-.282-.44-.664-.44-1.064 0-.398.158-.78.44-1.062l6.974-6.944c.586-.584 1.534-.584 2.12.004.584.588.582 1.538-.004 2.122l-5.906 5.88 5.906 5.88c.586.584.588 1.532.004 2.12-.292.296-.678.442-1.062.442z" fill="#fff"/></g></svg>
